lib/brands/logos/amazon-alexa.svg

<svg xmlns="http://www.w3.org/2000/svg" fill="none" aria-hidden="true" viewBox="0 0 265 46"><g id="Amazon Alexa"><g id="Group"><g id="Union"><path fill="#3F3B3C" fill-rule="evenodd" d="M258.47 21.1032C258.47 17.5986 256.437 15.8457 252.37 15.8457C251.382 15.8457 250.377 15.9402 249.354 16.1283C248.332 16.3167 247.374 16.5866 246.481 16.9399C246.174 17.0579 246.022 17.2924 246.022 17.6455V18.2099C246.022 18.5155 246.163 18.6683 246.446 18.6683C246.539 18.6683 246.662 18.6395 246.816 18.5806C246.968 18.5214 247.174 18.4571 247.433 18.3863C249.054 17.9158 250.594 17.6805 252.052 17.6805C253.627 17.6805 254.755 17.9927 255.437 18.6157C256.119 19.2389 256.461 20.2681 256.461 21.7033V24.6665C255.618 24.4032 254.758 24.2026 253.886 24.0664C252.992 23.9257 252.17 23.8554 251.417 23.8554C249.372 23.8554 247.768 24.3484 246.604 25.3371C245.44 26.3245 244.858 27.6775 244.858 29.3939C244.858 30.9465 245.334 32.1876 246.286 33.1162C247.239 34.0456 248.525 34.5102 250.148 34.5102C252.357 34.5102 254.473 33.6982 256.496 32.0755L256.637 33.5922C256.659 33.9454 256.848 34.1216 257.201 34.1216H257.941C258.293 34.1216 258.47 33.9456 258.47 33.5922V21.1032ZM246.939 29.3586C246.939 26.8188 248.584 25.5482 251.876 25.5482C253.333 25.5482 254.861 25.7599 256.461 26.1833V30.5936C255.402 31.276 254.356 31.7933 253.321 32.1458C252.287 32.4991 251.323 32.6751 250.43 32.6751C248.103 32.6751 246.939 31.5697 246.939 29.3586Z" clip-rule="evenodd"/><path fill="#3F3B3C" d="M230.129 33.7332L235.242 26.2894L240.496 33.7332C240.684 33.9929 240.92 34.1218 241.202 34.1218H242.294C242.6 34.1218 242.753 33.9929 242.753 33.7332C242.753 33.6398 242.683 33.4863 242.542 33.2752L236.511 24.737L241.942 17.2219C242.083 17.01 242.153 16.8579 242.153 16.7636C242.153 16.5046 242.001 16.3751 241.695 16.3751H240.743C240.461 16.3751 240.225 16.5046 240.038 16.7636L235.419 23.326L230.799 16.7636C230.61 16.5046 230.363 16.3751 230.058 16.3751H228.965C228.659 16.3751 228.507 16.5046 228.507 16.7636C228.507 16.8341 228.577 16.9749 228.718 17.1866L234.219 24.878L228.189 33.2752C228.024 33.4863 227.942 33.6398 227.942 33.7332C227.942 33.9929 228.095 34.1218 228.401 34.1218H229.388C229.694 34.1218 229.94 33.9929 230.129 33.7332Z"/><path fill="#3F3B3C" fill-rule="evenodd" d="M224.105 31.9869C223.964 32.0464 223.74 32.1228 223.435 32.2163C222.047 32.6165 220.661 32.8164 219.274 32.8164C217.134 32.8164 215.53 32.2116 214.46 30.9991C213.39 29.7877 212.855 27.9117 212.855 25.3721C213.738 25.6288 214.641 25.8117 215.554 25.9189C216.458 26.0244 217.357 26.0779 218.251 26.0779C220.743 26.0779 222.582 25.6834 223.77 24.8961C224.957 24.1079 225.551 22.8793 225.551 21.2088C225.551 19.5149 224.992 18.1986 223.875 17.2569C222.759 16.3167 221.178 15.8457 219.132 15.8457C217.839 15.8457 216.676 16.0636 215.641 16.4989C214.607 16.9342 213.731 17.5691 213.014 18.4035C212.296 19.2389 211.75 20.2507 211.374 21.4381C210.998 22.6255 210.811 23.9607 210.811 25.4428C210.811 28.4536 211.521 30.7409 212.944 32.3048C214.366 33.8691 216.429 34.6512 219.133 34.6512C221.037 34.6512 222.835 34.2978 224.528 33.5922C224.787 33.475 224.916 33.2285 224.916 32.8516V32.3579C224.916 32.0526 224.775 31.8993 224.493 31.8993C224.375 31.8993 224.246 31.9286 224.105 31.9869ZM214.777 19.1977C215.8 18.1628 217.193 17.6455 218.956 17.6455C221.989 17.6455 223.505 18.8327 223.505 21.2088C223.505 22.3376 223.094 23.1608 222.271 23.6783C221.448 24.196 220.155 24.4544 218.392 24.4544C217.475 24.4544 216.563 24.396 215.659 24.2782C214.738 24.158 213.826 23.9811 212.927 23.7486C213.138 21.75 213.755 20.2329 214.777 19.1977Z" clip-rule="evenodd"/><path fill="#3F3B3C" d="M204.759 8.01353C204.407 8.01353 204.23 8.18999 204.23 8.54247V31.0875C204.23 32.0755 204.495 32.8461 205.023 33.3977C205.552 33.9513 206.287 34.2276 207.228 34.2276C207.439 34.2276 207.68 34.215 207.951 34.1921C208.221 34.1683 208.427 34.1333 208.568 34.0864C208.873 34.0161 209.026 33.8396 209.026 33.5572V32.8868C209.026 32.5577 208.861 32.3932 208.532 32.3932C208.415 32.3932 208.268 32.4048 208.092 32.4284C207.916 32.452 207.757 32.4639 207.616 32.4639C207.098 32.4639 206.74 32.3581 206.54 32.1458C206.34 31.9343 206.24 31.5697 206.24 31.0522V8.54268C206.24 8.1902 206.064 8.01353 205.711 8.01353H204.759Z"/><path fill="#3F3B3C" fill-rule="evenodd" d="M199.575 21.1032C199.575 17.5986 197.542 15.8457 193.475 15.8457C192.487 15.8457 191.483 15.9402 190.46 16.1283C189.438 16.3167 188.479 16.5866 187.586 16.9399C187.28 17.0579 187.127 17.2924 187.127 17.6455V18.2099C187.127 18.5155 187.268 18.6683 187.551 18.6683C187.644 18.6683 187.767 18.6395 187.922 18.5806C188.074 18.5214 188.279 18.4571 188.538 18.3863C190.16 17.9158 191.7 17.6805 193.157 17.6805C194.732 17.6805 195.861 17.9927 196.543 18.6157C197.224 19.2389 197.566 20.2681 197.566 21.7033V24.6665C196.724 24.4032 195.863 24.2026 194.991 24.0664C194.097 23.9257 193.275 23.8554 192.523 23.8554C190.478 23.8554 188.873 24.3484 187.709 25.3371C186.546 26.3245 185.964 27.6775 185.964 29.3939C185.964 30.9465 186.44 32.1876 187.392 33.1162C188.344 34.0456 189.631 34.5102 191.254 34.5102C193.463 34.5102 195.579 33.6982 197.601 32.0755L197.742 33.5922C197.765 33.9454 197.953 34.1216 198.306 34.1216H199.047C199.399 34.1216 199.575 33.9456 199.575 33.5922V21.1032ZM188.044 29.3586C188.044 26.8188 189.69 25.5482 192.981 25.5482C194.438 25.5482 195.967 25.7599 197.566 26.1833V30.5936C196.508 31.276 195.462 31.7933 194.427 32.1458C193.392 32.4991 192.428 32.6751 191.536 32.6751C189.208 32.6751 188.044 31.5697 188.044 29.3586Z" clip-rule="evenodd"/><path fill="#3F3B3C" fill-rule="evenodd" d="M66.5621 15.8457C70.629 15.8457 72.6622 17.5985 72.6622 21.1032V33.5922C72.6622 33.9455 72.4859 34.1216 72.1339 34.1216H71.3934C71.0401 34.1216 70.852 33.9453 70.8288 33.5922L70.6878 32.0755C68.6655 33.6982 66.5498 34.5102 64.3404 34.5102C62.7179 34.5102 61.4307 34.0456 60.479 33.1161C59.5264 32.1876 59.0505 30.9464 59.0505 29.3938C59.0505 27.6775 59.6326 26.3244 60.796 25.3371C61.9598 24.3484 63.5649 23.8553 65.6097 23.8553C66.3625 23.8553 67.1847 23.9256 68.0782 24.0664C68.95 24.2025 69.8105 24.4031 70.6526 24.6665V21.7033C70.6526 20.2681 70.3112 19.2389 69.63 18.6156C68.9475 17.9926 67.8193 17.6805 66.2444 17.6805C64.7871 17.6805 63.247 17.9158 61.6249 18.3863C61.3661 18.457 61.1606 18.5214 61.0081 18.5806C60.8544 18.6394 60.7314 18.6683 60.6378 18.6683C60.3552 18.6683 60.2144 18.5154 60.2144 18.2099V17.6455C60.2144 17.2923 60.3668 17.0579 60.673 16.9399C61.5661 16.5865 62.5244 16.3166 63.5464 16.1283C64.5699 15.9402 65.5743 15.8457 66.5621 15.8457ZM66.0684 25.5481C62.7767 25.5481 61.1313 26.8188 61.1313 29.3586C61.1313 31.5697 62.2951 32.6751 64.6223 32.6751C65.5152 32.6751 66.479 32.4991 67.5138 32.1457C68.5481 31.7933 69.5945 31.276 70.6526 30.5935V26.1832C69.0537 25.7598 67.5255 25.5483 66.0682 25.5483L66.0684 25.5481Z" clip-rule="evenodd"/><path fill="#3F3B3C" d="M97.7708 15.8457C99.3924 15.8457 100.627 16.299 101.473 17.2046C102.319 18.1101 102.743 19.4444 102.743 21.2087V33.5924C102.743 33.9455 102.566 34.1216 102.213 34.1216H101.261C100.909 34.1216 100.732 33.9453 100.732 33.5922V22.0556C100.732 20.5033 100.468 19.3862 99.9386 18.7035C99.4094 18.0215 98.546 17.6805 97.3467 17.6805C95.09 17.6805 92.9621 18.4216 90.9642 19.9033C91.0338 20.4533 91.0691 21.0071 91.07 21.5614V33.5922C91.07 33.9455 90.8937 34.1216 90.5406 34.1216H89.5891C89.2366 34.1216 89.06 33.9453 89.06 33.5922V22.0556C89.06 20.5033 88.7952 19.3862 88.2667 18.7035C87.7377 18.0215 86.8737 17.6805 85.6748 17.6805C83.4882 17.6805 81.3962 18.3984 79.3978 19.833V33.5922C79.3978 33.9455 79.221 34.1216 78.8691 34.1216H77.9168C77.5641 34.1216 77.388 33.9453 77.388 33.5922V16.9044C77.388 16.5515 77.5641 16.3748 77.9168 16.3748H78.6222C78.9742 16.3748 79.1745 16.5515 79.221 16.9046L79.3628 18.3158C80.4205 17.5397 81.5253 16.9339 82.677 16.4988C83.829 16.0635 84.9696 15.8457 86.0976 15.8457C88.3068 15.8457 89.7881 16.7521 90.5406 18.5626C91.6694 17.6692 92.8509 16.9923 94.085 16.5339C95.3197 16.0752 96.5477 15.8457 97.7708 15.8457Z"/><path fill="#3F3B3C" fill-rule="evenodd" d="M119.951 21.1032C119.951 17.5985 117.917 15.8457 113.85 15.8457C112.863 15.8457 111.858 15.9402 110.835 16.1283C109.813 16.3166 108.854 16.5865 107.961 16.9399C107.655 17.0579 107.502 17.2923 107.502 17.6455V18.2099C107.502 18.5154 107.643 18.6683 107.926 18.6683C108.02 18.6683 108.142 18.6394 108.296 18.5806C108.449 18.5214 108.654 18.457 108.913 18.3863C110.535 17.9158 112.075 17.6805 113.533 17.6805C115.107 17.6805 116.236 17.9926 116.918 18.6156C117.599 19.2389 117.941 20.2681 117.941 21.7033V24.6665C117.099 24.4031 116.238 24.2025 115.366 24.0664C114.473 23.9256 113.651 23.8553 112.898 23.8553C110.853 23.8553 109.248 24.3484 108.084 25.3371C106.921 26.3244 106.339 27.6775 106.339 29.3938C106.339 30.9464 106.815 32.1876 107.767 33.1161C108.719 34.0456 110.006 34.5102 111.628 34.5102C113.838 34.5102 115.954 33.6982 117.976 32.0755L118.117 33.5922C118.14 33.9453 118.328 34.1216 118.682 34.1216H119.422C119.774 34.1216 119.951 33.9455 119.951 33.5922V21.1032ZM108.419 29.3586C108.419 26.8188 110.065 25.5481 113.357 25.5481C114.814 25.5481 116.342 25.7598 117.941 26.1832V30.5935C116.883 31.276 115.836 31.7933 114.802 32.1457C113.767 32.4991 112.803 32.6751 111.911 32.6751C109.583 32.6751 108.419 31.5697 108.419 29.3586Z" clip-rule="evenodd"/><path fill="#3F3B3C" d="M136.807 32.8868V33.5922C136.807 33.9455 136.631 34.1216 136.278 34.1216H123.865C123.512 34.1216 123.336 33.9453 123.336 33.5922V32.8513C123.336 32.6171 123.366 32.4284 123.424 32.2865C123.482 32.1455 123.594 31.9816 123.76 31.7933L134.48 18.1394H124.218C123.865 18.1394 123.688 17.9625 123.688 17.61V16.9046C123.688 16.5513 123.865 16.3748 124.218 16.3748H136.207C136.56 16.3748 136.736 16.5513 136.736 16.9046V17.6452C136.736 17.8336 136.706 18.01 136.648 18.1746C136.589 18.3396 136.466 18.5271 136.278 18.7388L125.522 32.3579H136.277C136.631 32.3579 136.807 32.5343 136.807 32.8868Z"/><path fill="#3F3B3C" fill-rule="evenodd" d="M141.162 32.1988C142.607 33.8341 144.612 34.6509 147.174 34.6509C149.736 34.6509 151.741 33.8338 153.186 32.1988C154.632 30.5642 155.355 28.2421 155.355 25.2311C155.355 22.2201 154.632 19.9035 153.186 18.2806C151.741 16.6572 149.736 15.8457 147.174 15.8457C144.612 15.8457 142.607 16.6572 141.162 18.2806C139.716 19.9035 138.993 22.2201 138.993 25.2311C138.993 28.2421 139.716 30.5642 141.162 32.1988ZM153.275 25.2311C153.275 30.2877 151.241 32.8163 147.174 32.8163C143.107 32.8163 141.074 30.2877 141.074 25.2311C141.074 20.1976 143.107 17.6805 147.174 17.6805C151.241 17.6805 153.275 20.1976 153.275 25.2311Z" clip-rule="evenodd"/><path fill="#3F3B3C" d="M168.544 15.8457C170.283 15.8457 171.599 16.299 172.493 17.2046C173.386 18.1101 173.833 19.4444 173.833 21.2087V33.5924C173.833 33.9455 173.657 34.1216 173.305 34.1216H172.352C171.999 34.1216 171.824 33.9453 171.824 33.5922V22.0556C171.824 20.5033 171.528 19.3862 170.941 18.7035C170.354 18.0215 169.413 17.6805 168.12 17.6805C166.874 17.6805 165.687 17.875 164.558 18.2627C163.43 18.6509 162.325 19.21 161.244 19.9387V33.5922C161.244 33.9455 161.067 34.1216 160.715 34.1216H159.763C159.41 34.1216 159.234 33.9453 159.234 33.5922V16.9044C159.234 16.5515 159.41 16.3748 159.763 16.3748H160.469C160.821 16.3748 161.021 16.5515 161.067 16.9046L161.209 18.4216C162.337 17.5985 163.536 16.9634 164.806 16.516C166.075 16.0693 167.321 15.8457 168.544 15.8457Z"/></g><path id="Vector" fill="#5FCAF4" fill-rule="evenodd" d="M24.9238 4.65956C14.7655 4.65956 6.53027 12.899 6.53027 23.0624C6.53027 32.3942 13.4725 40.1023 22.4715 41.302V37.5939C22.4715 36.5482 21.8124 35.6086 20.8216 35.2758C15.6295 33.5308 11.915 28.5657 12.052 22.752C12.2184 15.6743 17.9809 10.1097 25.0565 10.181C32.1062 10.2524 37.7995 15.9922 37.7995 23.0624C37.7995 23.2236 37.7955 23.3839 37.7895 23.5434L37.7857 23.6511C37.7789 23.7988 37.7697 23.9465 37.7581 24.094C37.7547 24.1407 37.75 24.1874 37.7458 24.2341C37.7266 24.4519 37.7014 24.669 37.6704 24.8854C37.6634 24.9376 37.6562 24.9901 37.6483 25.0421C36.0719 35.4313 22.5471 41.2704 22.473 41.3025C23.275 41.4091 24.0929 41.4651 24.9238 41.4651C35.0824 41.4651 43.3176 33.2261 43.3176 23.0624C43.3176 12.899 35.0824 4.65956 24.9238 4.65956Z" clip-rule="evenodd"/></g></g></svg>

<svg xmlns="http://www.w3.org/2000/svg" fill="none" aria-hidden="true" viewBox="0 0 265 46"><g fill="#3F3B3C"><path fill-rule="evenodd" d="M258.47 21.103c0-3.504-2.033-5.257-6.1-5.257-.988 0-1.993.094-3.016.282-1.022.189-1.98.459-2.873.812-.307.118-.459.352-.459.705v.565c0 .305.141.458.424.458a1.1 1.1 0 0 0 .37-.087c.152-.06.358-.124.617-.195 1.621-.47 3.161-.706 4.619-.706 1.575 0 2.703.313 3.385.936.682.623 1.024 1.652 1.024 3.087v2.963a17.9 17.9 0 0 0-2.575-.6 15.958 15.958 0 0 0-2.469-.21c-2.045 0-3.649.492-4.813 1.481-1.164.988-1.746 2.34-1.746 4.057 0 1.553.476 2.794 1.428 3.722.953.93 2.239 1.394 3.862 1.394 2.209 0 4.325-.812 6.348-2.434l.141 1.516c.022.353.211.53.564.53h.74c.352 0 .529-.176.529-.53V21.103Zm-11.531 8.256c0-2.54 1.645-3.81 4.937-3.81 1.457 0 2.985.21 4.585.634v4.41c-1.059.683-2.105 1.2-3.14 1.553-1.034.353-1.998.53-2.891.53-2.327 0-3.491-1.106-3.491-3.317Z" clip-rule="evenodd"/><path d="m230.129 33.733 5.113-7.444 5.254 7.444c.188.26.424.389.706.389h1.092c.306 0 .459-.13.459-.389 0-.093-.07-.247-.211-.458l-6.031-8.538 5.431-7.515c.141-.212.211-.364.211-.458 0-.26-.152-.389-.458-.389h-.952c-.282 0-.518.13-.705.389l-4.619 6.562-4.62-6.562a.877.877 0 0 0-.741-.389h-1.093c-.306 0-.458.13-.458.389 0 .07.07.21.211.423l5.501 7.691-6.03 8.397c-.165.211-.247.365-.247.458 0 .26.153.389.459.389h.987a.874.874 0 0 0 .741-.389Z"/><path fill-rule="evenodd" d="M224.105 31.987a7.69 7.69 0 0 1-.67.23c-1.388.4-2.774.6-4.161.6-2.14 0-3.744-.605-4.814-1.818-1.07-1.211-1.605-3.087-1.605-5.627.883.257 1.786.44 2.699.547a23.25 23.25 0 0 0 2.697.159c2.492 0 4.331-.395 5.519-1.182 1.187-.788 1.781-2.017 1.781-3.687 0-1.694-.559-3.01-1.676-3.952-1.116-.94-2.697-1.411-4.743-1.411-1.293 0-2.456.218-3.491.653a6.988 6.988 0 0 0-2.627 1.905c-.718.835-1.264 1.847-1.64 3.034-.376 1.188-.563 2.523-.563 4.005 0 3.01.71 5.298 2.133 6.862 1.422 1.564 3.485 2.346 6.189 2.346 1.904 0 3.702-.353 5.395-1.059.259-.117.388-.364.388-.74v-.494c0-.305-.141-.459-.423-.459-.118 0-.247.03-.388.088Zm-9.328-12.79c1.023-1.034 2.416-1.552 4.179-1.552 3.033 0 4.549 1.188 4.549 3.564 0 1.129-.411 1.952-1.234 2.47-.823.517-2.116.775-3.879.775a21.14 21.14 0 0 1-2.733-.176 22.58 22.58 0 0 1-2.732-.53c.211-1.998.828-3.515 1.85-4.55Z" clip-rule="evenodd"/><path d="M204.759 8.014c-.352 0-.529.176-.529.528v22.545c0 .988.265 1.76.793 2.31.529.554 1.264.83 2.205.83.211 0 .452-.012.723-.035a2.88 2.88 0 0 0 .617-.106c.305-.07.458-.246.458-.529v-.67c0-.33-.165-.494-.494-.494-.117 0-.264.012-.44.035a3.62 3.62 0 0 1-.476.036c-.518 0-.876-.106-1.076-.318-.2-.212-.3-.576-.3-1.094V8.542c0-.352-.176-.528-.529-.528h-.952Z"/><path fill-rule="evenodd" d="M199.575 21.103c0-3.504-2.033-5.257-6.1-5.257-.988 0-1.992.094-3.015.282a15.374 15.374 0 0 0-2.874.812c-.306.118-.459.352-.459.705v.565c0 .305.141.458.424.458.093 0 .216-.028.371-.087a6.29 6.29 0 0 1 .616-.195c1.622-.47 3.162-.706 4.619-.706 1.575 0 2.704.313 3.386.936.681.623 1.023 1.652 1.023 3.087v2.963a17.868 17.868 0 0 0-2.575-.6 15.956 15.956 0 0 0-2.468-.21c-2.045 0-3.65.492-4.814 1.481-1.163.988-1.745 2.34-1.745 4.057 0 1.553.476 2.794 1.428 3.722.952.93 2.239 1.394 3.862 1.394 2.209 0 4.325-.812 6.347-2.434l.141 1.516c.023.353.211.53.564.53h.741c.352 0 .528-.176.528-.53V21.103Zm-11.531 8.256c0-2.54 1.646-3.81 4.937-3.81 1.457 0 2.986.21 4.585.634v4.41c-1.058.683-2.104 1.2-3.139 1.553-1.035.353-1.999.53-2.891.53-2.328 0-3.492-1.106-3.492-3.317ZM66.562 15.846c4.067 0 6.1 1.753 6.1 5.257v12.49c0 .352-.176.529-.528.529h-.74c-.354 0-.542-.177-.565-.53l-.141-1.517c-2.023 1.623-4.138 2.435-6.348 2.435-1.622 0-2.91-.464-3.861-1.394-.953-.928-1.428-2.17-1.428-3.722 0-1.716.582-3.07 1.745-4.057 1.164-.989 2.769-1.482 4.814-1.482.752 0 1.575.07 2.468.211.872.137 1.733.337 2.575.6v-2.963c0-1.435-.342-2.464-1.023-3.087-.682-.623-1.81-.936-3.386-.936-1.457 0-2.997.236-4.62.706a6.473 6.473 0 0 0-.616.195 1.1 1.1 0 0 1-.37.087c-.283 0-.424-.153-.424-.458v-.565c0-.353.153-.587.459-.705a15.355 15.355 0 0 1 2.873-.812 16.656 16.656 0 0 1 3.016-.282Zm-.494 9.702c-3.291 0-4.937 1.27-4.937 3.81 0 2.212 1.164 3.317 3.491 3.317.893 0 1.857-.176 2.892-.53 1.034-.352 2.08-.869 3.139-1.552v-4.41c-1.6-.423-3.128-.635-4.585-.635Z" clip-rule="evenodd"/><path d="M97.77 15.846c1.622 0 2.857.453 3.703 1.359.846.905 1.27 2.24 1.27 4.004v12.383c0 .354-.177.53-.53.53h-.952c-.352 0-.529-.177-.529-.53V22.056c0-1.553-.264-2.67-.793-3.353-.53-.681-1.393-1.023-2.592-1.023-2.257 0-4.385.742-6.383 2.223.07.55.105 1.104.106 1.658v12.031c0 .354-.176.53-.53.53h-.95c-.353 0-.53-.177-.53-.53V22.056c0-1.553-.265-2.67-.793-3.353-.53-.681-1.393-1.023-2.592-1.023-2.187 0-4.279.718-6.277 2.153v13.76c0 .352-.177.529-.529.529h-.952c-.353 0-.529-.177-.529-.53V16.904c0-.352.176-.53.529-.53h.705c.352 0 .552.178.599.53l.142 1.412a13.895 13.895 0 0 1 3.314-1.817c1.152-.435 2.293-.653 3.42-.653 2.21 0 3.691.906 4.444 2.717 1.128-.894 2.31-1.57 3.544-2.03 1.235-.458 2.463-.687 3.686-.687Z"/><path fill-rule="evenodd" d="M119.951 21.103c0-3.505-2.034-5.257-6.101-5.257-.987 0-1.992.094-3.015.282a15.359 15.359 0 0 0-2.874.812c-.306.118-.459.352-.459.705v.565c0 .305.141.458.424.458.094 0 .216-.029.37-.087a6.59 6.59 0 0 1 .617-.195c1.622-.47 3.162-.706 4.62-.706 1.574 0 2.703.313 3.385.936.681.623 1.023 1.652 1.023 3.087v2.963a17.842 17.842 0 0 0-2.575-.6 15.924 15.924 0 0 0-2.468-.21c-2.045 0-3.65.492-4.814 1.481-1.163.987-1.745 2.34-1.745 4.057 0 1.552.476 2.794 1.428 3.722.952.93 2.239 1.394 3.861 1.394 2.21 0 4.326-.812 6.348-2.434l.141 1.516c.023.353.211.53.565.53h.74c.352 0 .529-.176.529-.53V21.103Zm-11.532 8.256c0-2.54 1.646-3.81 4.938-3.81 1.457 0 2.985.21 4.584.634v4.41c-1.058.683-2.105 1.2-3.139 1.553-1.035.353-1.999.53-2.891.53-2.328 0-3.492-1.106-3.492-3.317Z" clip-rule="evenodd"/><path d="M136.807 32.887v.705c0 .354-.176.53-.529.53h-12.413c-.353 0-.529-.177-.529-.53v-.74c0-.235.03-.424.088-.566.058-.14.17-.304.336-.493l10.72-13.654h-10.262c-.353 0-.53-.177-.53-.529v-.705c0-.354.177-.53.53-.53h11.989c.353 0 .529.176.529.53v.74c0 .189-.03.365-.088.53-.059.165-.182.352-.37.564l-10.756 13.619h10.755c.354 0 .53.176.53.529Z"/><path fill-rule="evenodd" d="M141.162 32.199c1.445 1.635 3.45 2.452 6.012 2.452 2.562 0 4.567-.817 6.012-2.452 1.446-1.635 2.169-3.957 2.169-6.968 0-3.01-.723-5.328-2.169-6.95-1.445-1.624-3.45-2.435-6.012-2.435-2.562 0-4.567.811-6.012 2.435-1.446 1.623-2.169 3.94-2.169 6.95 0 3.011.723 5.333 2.169 6.968Zm12.113-6.968c0 5.057-2.034 7.585-6.101 7.585s-6.1-2.528-6.1-7.585c0-5.033 2.033-7.55 6.1-7.55s6.101 2.517 6.101 7.55Z" clip-rule="evenodd"/><path d="M168.544 15.846c1.739 0 3.055.453 3.949 1.359.893.905 1.34 2.24 1.34 4.004v12.383c0 .354-.176.53-.528.53h-.953c-.353 0-.528-.177-.528-.53V22.056c0-1.553-.296-2.67-.883-3.353-.587-.681-1.528-1.023-2.821-1.023a10.89 10.89 0 0 0-3.562.583 14.196 14.196 0 0 0-3.314 1.676v13.653c0 .354-.177.53-.529.53h-.952c-.353 0-.529-.177-.529-.53V16.904c0-.352.176-.53.529-.53h.706c.352 0 .552.178.598.53l.142 1.518a13.935 13.935 0 0 1 3.597-1.906c1.269-.447 2.515-.67 3.738-.67Z"/></g><path fill="#5FCAF4" fill-rule="evenodd" d="M24.924 4.66C14.765 4.66 6.53 12.899 6.53 23.062c0 9.332 6.942 17.04 15.941 18.24v-3.708a2.44 2.44 0 0 0-1.65-2.318c-5.192-1.745-8.906-6.71-8.769-12.524a12.833 12.833 0 0 1 13.005-12.571c7.05.071 12.743 5.811 12.743 12.881 0 .162-.005.322-.01.481l-.004.108c-.007.148-.016.296-.028.443-.003.047-.008.093-.012.14a12.061 12.061 0 0 1-.098.808c-1.576 10.39-15.1 16.228-15.175 16.26.802.107 1.62.163 2.45.163 10.16 0 18.395-8.239 18.395-18.403 0-10.163-8.236-18.402-18.394-18.402Z" clip-rule="evenodd"/></svg>
